packages/assets/static/images/icons/calendar.svg

<svg width="24" height="24" viewBox="0 0 24 24" xmlns="http://www.w3.org/2000/svg">
<path d="M19.5 3H17.25V2.25C17.25 2.05109 17.171 1.86032 17.0303 1.71967C16.8897 1.57902 16.6989 1.5 16.5 1.5C16.3011 1.5 16.1103 1.57902 15.9697 1.71967C15.829 1.86032 15.75 2.05109 15.75 2.25V3H8.25V2.25C8.25 2.05109 8.17098 1.86032 8.03033 1.71967C7.88968 1.57902 7.69891 1.5 7.5 1.5C7.30109 1.5 7.11032 1.57902 6.96967 1.71967C6.82902 1.86032 6.75 2.05109 6.75 2.25V3H4.5C4.10218 3 3.72064 3.15804 3.43934 3.43934C3.15804 3.72064 3 4.10218 3 4.5V19.5C3 19.8978 3.15804 20.2794 3.43934 20.5607C3.72064 20.842 4.10218 21 4.5 21H19.5C19.8978 21 20.2794 20.842 20.5607 20.5607C20.842 20.2794 21 19.8978 21 19.5V4.5C21 4.10218 20.842 3.72064 20.5607 3.43934C20.2794 3.15804 19.8978 3 19.5 3ZM6.75 4.5V5.25C6.75 5.44891 6.82902 5.63968 6.96967 5.78033C7.11032 5.92098 7.30109 6 7.5 6C7.69891 6 7.88968 5.92098 8.03033 5.78033C8.17098 5.63968 8.25 5.44891 8.25 5.25V4.5H15.75V5.25C15.75 5.44891 15.829 5.63968 15.9697 5.78033C16.1103 5.92098 16.3011 6 16.5 6C16.6989 6 16.8897 5.92098 17.0303 5.78033C17.171 5.63968 17.25 5.44891 17.25 5.25V4.5H19.5V7.5H4.5V4.5H6.75ZM19.5 19.5H4.5V9H19.5V19.5Z"/>
</svg>

<svg viewBox="0 0 24 24" xmlns="http://www.w3.org/2000/svg" aria-hidden="true" fill="currentColor"><path d="M19.5 3h-2.25v-.75a.75.75 0 1 0-1.5 0V3h-7.5v-.75a.75.75 0 0 0-1.5 0V3H4.5A1.5 1.5 0 0 0 3 4.5v15A1.5 1.5 0 0 0 4.5 21h15a1.5 1.5 0 0 0 1.5-1.5v-15A1.5 1.5 0 0 0 19.5 3M6.75 4.5v.75a.75.75 0 0 0 1.5 0V4.5h7.5v.75a.75.75 0 1 0 1.5 0V4.5h2.25v3h-15v-3zm12.75 15h-15V9h15z"/></svg>
